icons/minimize.svg

<?xml version="1.0" standalone="no"?><!-- Generator: Gravit.io --><svg xmlns="http://www.w3.org/2000/svg" xmlns:xlink="http://www.w3.org/1999/xlink" width="96" height="96"><path d=" M 8 40 C 6.899999999999999 40 5.899999999999999 39.6 5.200000000000003 38.8 C 4.399999999999999 38.1 4 37.1 4 36 C 4 34.9 4.399999999999999 33.9 5.200000000000003 33.2 C 5.899999999999999 32.4 6.899999999999999 32 8 32 L 28 32 L 28 12 C 28 10.899999999999999 28.4 9.899999999999999 29.2 9.200000000000003 C 29.9 8.399999999999999 30.9 8 32 8 C 33.1 8 34.1 8.399999999999999 34.8 9.200000000000003 C 35.6 9.899999999999999 36 10.899999999999999 36 12 L 36 32 C 36 34.1 35.2 36.2 33.7 37.7 C 32.2 39.2 30.1 40 28 40 L 8 40 Z  M 88 32 C 89.1 32 90.1 32.4 90.8 33.2 C 91.6 33.9 92 34.9 92 36 C 92 37.1 91.6 38.1 90.8 38.8 C 90.1 39.6 89.1 40 88 40 L 68 40 C 65.9 40 63.8 39.2 62.3 37.7 C 60.8 36.2 60 34.1 60 32 L 60 12 C 60 10.899999999999999 60.400000000000006 9.899999999999999 61.2 9.200000000000003 C 61.900000000000006 8.399999999999999 62.900000000000006 8 64 8 C 65.1 8 66.1 8.399999999999999 66.8 9.200000000000003 C 67.6 9.899999999999999 68 10.899999999999999 68 12 L 68 32 L 88 32 Z  M 68 84 C 68 85.1 67.6 86.1 66.8 86.8 C 66.1 87.6 65.1 88 64 88 C 62.900000000000006 88 61.900000000000006 87.6 61.2 86.8 C 60.400000000000006 86.1 60 85.1 60 84 L 60 64 C 60 61.900000000000006 60.8 59.8 62.3 58.3 C 63.8 56.8 65.9 56 68 56 L 88 56 C 89.1 56 90.1 56.400000000000006 90.8 57.2 C 91.6 57.900000000000006 92 58.900000000000006 92 60 C 92 61.099999999999994 91.6 62.099999999999994 90.8 62.8 C 90.1 63.599999999999994 89.1 64 88 64 L 68 64 L 68 84 Z  M 36 84 C 36 85.1 35.6 86.1 34.8 86.8 C 34.1 87.6 33.1 88 32 88 C 30.9 88 29.9 87.6 29.2 86.8 C 28.4 86.1 28 85.1 28 84 L 28 64 L 8 64 C 6.899999999999999 64 5.899999999999999 63.599999999999994 5.200000000000003 62.8 C 4.399999999999999 62.099999999999994 4 61.099999999999994 4 60 C 4 58.900000000000006 4.399999999999999 57.900000000000006 5.200000000000003 57.2 C 5.899999999999999 56.400000000000006 6.899999999999999 56 8 56 L 28 56 C 30.1 56 32.2 56.8 33.7 58.3 C 35.2 59.8 36 61.900000000000006 36 64 L 36 84 Z " fill-rule="evenodd" fill="#454545" stroke="none"/><mask id="_mask_gQI2qj7M9sGSMUi8T7NYhzW0tvRaKkge"><path d=" M 8 40 C 6.899999999999999 40 5.899999999999999 39.6 5.200000000000003 38.8 C 4.399999999999999 38.1 4 37.1 4 36 C 4 34.9 4.399999999999999 33.9 5.200000000000003 33.2 C 5.899999999999999 32.4 6.899999999999999 32 8 32 L 28 32 L 28 12 C 28 10.899999999999999 28.4 9.899999999999999 29.2 9.200000000000003 C 29.9 8.399999999999999 30.9 8 32 8 C 33.1 8 34.1 8.399999999999999 34.8 9.200000000000003 C 35.6 9.899999999999999 36 10.899999999999999 36 12 L 36 32 C 36 34.1 35.2 36.2 33.7 37.7 C 32.2 39.2 30.1 40 28 40 L 8 40 Z  M 88 32 C 89.1 32 90.1 32.4 90.8 33.2 C 91.6 33.9 92 34.9 92 36 C 92 37.1 91.6 38.1 90.8 38.8 C 90.1 39.6 89.1 40 88 40 L 68 40 C 65.9 40 63.8 39.2 62.3 37.7 C 60.8 36.2 60 34.1 60 32 L 60 12 C 60 10.899999999999999 60.400000000000006 9.899999999999999 61.2 9.200000000000003 C 61.900000000000006 8.399999999999999 62.900000000000006 8 64 8 C 65.1 8 66.1 8.399999999999999 66.8 9.200000000000003 C 67.6 9.899999999999999 68 10.899999999999999 68 12 L 68 32 L 88 32 Z  M 68 84 C 68 85.1 67.6 86.1 66.8 86.8 C 66.1 87.6 65.1 88 64 88 C 62.900000000000006 88 61.900000000000006 87.6 61.2 86.8 C 60.400000000000006 86.1 60 85.1 60 84 L 60 64 C 60 61.900000000000006 60.8 59.8 62.3 58.3 C 63.8 56.8 65.9 56 68 56 L 88 56 C 89.1 56 90.1 56.400000000000006 90.8 57.2 C 91.6 57.900000000000006 92 58.900000000000006 92 60 C 92 61.099999999999994 91.6 62.099999999999994 90.8 62.8 C 90.1 63.599999999999994 89.1 64 88 64 L 68 64 L 68 84 Z  M 36 84 C 36 85.1 35.6 86.1 34.8 86.8 C 34.1 87.6 33.1 88 32 88 C 30.9 88 29.9 87.6 29.2 86.8 C 28.4 86.1 28 85.1 28 84 L 28 64 L 8 64 C 6.899999999999999 64 5.899999999999999 63.599999999999994 5.200000000000003 62.8 C 4.399999999999999 62.099999999999994 4 61.099999999999994 4 60 C 4 58.900000000000006 4.399999999999999 57.900000000000006 5.200000000000003 57.2 C 5.899999999999999 56.400000000000006 6.899999999999999 56 8 56 L 28 56 C 30.1 56 32.2 56.8 33.7 58.3 C 35.2 59.8 36 61.900000000000006 36 64 L 36 84 Z " fill-rule="evenodd" fill="white" stroke="none"/></mask><path d=" M 8 40 C 6.899999999999999 40 5.899999999999999 39.6 5.200000000000003 38.8 C 4.399999999999999 38.1 4 37.1 4 36 C 4 34.9 4.399999999999999 33.9 5.200000000000003 33.2 C 5.899999999999999 32.4 6.899999999999999 32 8 32 L 28 32 L 28 12 C 28 10.899999999999999 28.4 9.899999999999999 29.2 9.200000000000003 C 29.9 8.399999999999999 30.9 8 32 8 C 33.1 8 34.1 8.399999999999999 34.8 9.200000000000003 C 35.6 9.899999999999999 36 10.899999999999999 36 12 L 36 32 C 36 34.1 35.2 36.2 33.7 37.7 C 32.2 39.2 30.1 40 28 40 L 8 40 Z  M 88 32 C 89.1 32 90.1 32.4 90.8 33.2 C 91.6 33.9 92 34.9 92 36 C 92 37.1 91.6 38.1 90.8 38.8 C 90.1 39.6 89.1 40 88 40 L 68 40 C 65.9 40 63.8 39.2 62.3 37.7 C 60.8 36.2 60 34.1 60 32 L 60 12 C 60 10.899999999999999 60.400000000000006 9.899999999999999 61.2 9.200000000000003 C 61.900000000000006 8.399999999999999 62.900000000000006 8 64 8 C 65.1 8 66.1 8.399999999999999 66.8 9.200000000000003 C 67.6 9.899999999999999 68 10.899999999999999 68 12 L 68 32 L 88 32 Z  M 68 84 C 68 85.1 67.6 86.1 66.8 86.8 C 66.1 87.6 65.1 88 64 88 C 62.900000000000006 88 61.900000000000006 87.6 61.2 86.8 C 60.400000000000006 86.1 60 85.1 60 84 L 60 64 C 60 61.900000000000006 60.8 59.8 62.3 58.3 C 63.8 56.8 65.9 56 68 56 L 88 56 C 89.1 56 90.1 56.400000000000006 90.8 57.2 C 91.6 57.900000000000006 92 58.900000000000006 92 60 C 92 61.099999999999994 91.6 62.099999999999994 90.8 62.8 C 90.1 63.599999999999994 89.1 64 88 64 L 68 64 L 68 84 Z  M 36 84 C 36 85.1 35.6 86.1 34.8 86.8 C 34.1 87.6 33.1 88 32 88 C 30.9 88 29.9 87.6 29.2 86.8 C 28.4 86.1 28 85.1 28 84 L 28 64 L 8 64 C 6.899999999999999 64 5.899999999999999 63.599999999999994 5.200000000000003 62.8 C 4.399999999999999 62.099999999999994 4 61.099999999999994 4 60 C 4 58.900000000000006 4.399999999999999 57.900000000000006 5.200000000000003 57.2 C 5.899999999999999 56.400000000000006 6.899999999999999 56 8 56 L 28 56 C 30.1 56 32.2 56.8 33.7 58.3 C 35.2 59.8 36 61.900000000000006 36 64 L 36 84 Z " fill-rule="evenodd" fill="none" stroke="none" stroke-width="16" mask="url(#_mask_gQI2qj7M9sGSMUi8T7NYhzW0tvRaKkge)"/></svg>

<svg xmlns="http://www.w3.org/2000/svg" width="96" height="96"><path d="M8 40c-1.1 0-2.1-.4-2.8-1.2C4.4 38.1 4 37.1 4 36c0-1.1.4-2.1 1.2-2.8.7-.8 1.7-1.2 2.8-1.2h20V12c0-1.1.4-2.1 1.2-2.8.7-.8 1.7-1.2 2.8-1.2 1.1 0 2.1.4 2.8 1.2.8.7 1.2 1.7 1.2 2.8v20c0 2.1-.8 4.2-2.3 5.7-1.5 1.5-3.6 2.3-5.7 2.3H8zm80-8c1.1 0 2.1.4 2.8 1.2.8.7 1.2 1.7 1.2 2.8 0 1.1-.4 2.1-1.2 2.8-.7.8-1.7 1.2-2.8 1.2H68c-2.1 0-4.2-.8-5.7-2.3-1.5-1.5-2.3-3.6-2.3-5.7V12c0-1.1.4-2.1 1.2-2.8.7-.8 1.7-1.2 2.8-1.2 1.1 0 2.1.4 2.8 1.2.8.7 1.2 1.7 1.2 2.8v20h20zM68 84c0 1.1-.4 2.1-1.2 2.8-.7.8-1.7 1.2-2.8 1.2-1.1 0-2.1-.4-2.8-1.2-.8-.7-1.2-1.7-1.2-2.8V64c0-2.1.8-4.2 2.3-5.7 1.5-1.5 3.6-2.3 5.7-2.3h20c1.1 0 2.1.4 2.8 1.2.8.7 1.2 1.7 1.2 2.8 0 1.1-.4 2.1-1.2 2.8-.7.8-1.7 1.2-2.8 1.2H68v20zm-32 0c0 1.1-.4 2.1-1.2 2.8-.7.8-1.7 1.2-2.8 1.2-1.1 0-2.1-.4-2.8-1.2-.8-.7-1.2-1.7-1.2-2.8V64H8c-1.1 0-2.1-.4-2.8-1.2C4.4 62.1 4 61.1 4 60c0-1.1.4-2.1 1.2-2.8.7-.8 1.7-1.2 2.8-1.2h20c2.1 0 4.2.8 5.7 2.3 1.5 1.5 2.3 3.6 2.3 5.7v20z" fill-rule="evenodd" fill="#454545"/></svg>
